material/.icons/material/wechat.svg

<svg xmlns="http://www.w3.org/2000/svg" viewBox="0 0 24 24"><path d="M9.5 4C5.36 4 2 6.69 2 10c0 1.89 1.08 3.56 2.78 4.66L4 17l2.5-1.5c.89.31 1.87.5 2.91.5A5.22 5.22 0 019 14c0-3.31 3.13-6 7-6 .19 0 .38 0 .56.03C15.54 5.69 12.78 4 9.5 4m-3 2.5a1 1 0 011 1 1 1 0 01-1 1 1 1 0 01-1-1 1 1 0 011-1m5 0a1 1 0 011 1 1 1 0 01-1 1 1 1 0 01-1-1 1 1 0 011-1M16 9c-3.31 0-6 2.24-6 5s2.69 5 6 5c.67 0 1.31-.08 1.91-.25L20 20l-.62-1.87C20.95 17.22 22 15.71 22 14c0-2.76-2.69-5-6-5m-2 2.5a1 1 0 011 1 1 1 0 01-1 1 1 1 0 01-1-1 1 1 0 011-1m4 0a1 1 0 011 1 1 1 0 01-1 1 1 1 0 01-1-1 1 1 0 011-1z"/></svg>

<?xml version="1.0" encoding="UTF-8"?><!DOCTYPE svg PUBLIC "-//W3C//DTD SVG 1.1//EN" "http://www.w3.org/Graphics/SVG/1.1/DTD/svg11.dtd"><svg xmlns="http://www.w3.org/2000/svg" xmlns:xlink="http://www.w3.org/1999/xlink" version="1.1" id="mdi-wechat" width="24" height="24" viewBox="0 0 24 24"><path d="M9.5,4C5.36,4 2,6.69 2,10C2,11.89 3.08,13.56 4.78,14.66L4,17L6.5,15.5C7.39,15.81 8.37,16 9.41,16C9.15,15.37 9,14.7 9,14C9,10.69 12.13,8 16,8C16.19,8 16.38,8 16.56,8.03C15.54,5.69 12.78,4 9.5,4M6.5,6.5A1,1 0 0,1 7.5,7.5A1,1 0 0,1 6.5,8.5A1,1 0 0,1 5.5,7.5A1,1 0 0,1 6.5,6.5M11.5,6.5A1,1 0 0,1 12.5,7.5A1,1 0 0,1 11.5,8.5A1,1 0 0,1 10.5,7.5A1,1 0 0,1 11.5,6.5M16,9C12.69,9 10,11.24 10,14C10,16.76 12.69,19 16,19C16.67,19 17.31,18.92 17.91,18.75L20,20L19.38,18.13C20.95,17.22 22,15.71 22,14C22,11.24 19.31,9 16,9M14,11.5A1,1 0 0,1 15,12.5A1,1 0 0,1 14,13.5A1,1 0 0,1 13,12.5A1,1 0 0,1 14,11.5M18,11.5A1,1 0 0,1 19,12.5A1,1 0 0,1 18,13.5A1,1 0 0,1 17,12.5A1,1 0 0,1 18,11.5Z" /></svg>
